X:402
T:White Bread and Butter
N:"Gaily"
N:"collected by F.O'Neill"
N:Irish title: im agus aran ban
B:O'Neill's 402
Z:Transcribed by henrik.norbeck@mailbox.swipnet.se
M:3/4
L:1/8
K:A
A2|c2 d2 e2|d2 c2 A2|A6|A2 z2 A2|
c2 d2 e2|g2 e2 c2|d6|d2 c2 d2|
e3 a a2|a2 g2 e2|e3 f e2|e2 d2 c2|
d3 e d2|c2 A2 G2|A6|A4 z||
A/B/|c2 d2 B2|c2 d2 e2|g2 a2 f2|ag2 e2 d2|
e2 a2 g2|a2 b2 g2|a6|a4 ef|
g3 a g2|g2 e2 d2|e3 f e2|e2 d2 c2|
d3 e d2|c2 A2 G2|A6|A4||
